X:1
T:Title
%%score { 1 | ( 2 3 ) }
L:1/8
M:6/8
K:D
V:1 treble nm="Grand Piano"
V:2 bass 
V:3 bass 
V:1
 z3 z2[Q:1/4=100] [FA] | [Fd]2 [Fd] [Ac]2 [GB] | [FA]3 F2 D | F2 F [CA]2 C | D3- D2 F | %5
 [CE]2 [EA] ^G2 d | d3 c2 [Ge] | [Fe]2 [FA] [Ec]2 [DB] | [CA]3- [CA]2 A | B2 A Bc[Fd] | %10
 [Fd]3 [FA]2 [DF] | [FA]2 [DA] [CG]2 [EG] | F3- F2 F | G2 F [GB]2 [FA] | %14
[M:7/8] [FA]3 [DFd]3 [D=Fd] |[M:3/4] [DFd]3 [DA]3 | [GB]3 [Gc]3 |[M:5/8] [Fd]-[Fd]- [Fd]3 |] %18
V:2
 z3 z2 [D,A,] | [D,A,]2 [D,A,] [D,D]2 [D,D] | [D,D]3 [D,A,D]2 [D,F,] | %3
 [D,A,D]2 [D,F,D] [A,,E,]2 [A,,G,A,] | [D,F,A,]3- [D,F,A,]2 [D,A,D] | %5
 [A,,A,]2 [C,A,] [E,B,E]2 [^G,B,E] | [A,B,E]3 [A,E]2 [C,A,] | [D,A,]2 [D,A,] [E,A,]2 [E,^G,] | %8
 [A,,A,]3- [A,,A,]2 [F,D] | z3 .G3 | [D,A,]3 [D,D]2 [D,A,] | [D,A,]2 [A,,F,] [A,,E,]2 [C,A,] | %12
 [D,A,D]3- [D,A,D]2 [D,A,D] | [D,B,D]2 [D,A,D] [D,D]2 [D,D] |[M:7/8] [D,D]3 B,,3 ^A,, | %15
[M:3/4] A,,3 [A,,F,]3 | [A,,E,]3 [A,,A,]3 |[M:5/8] [D,A,]-[D,A,]- [D,A,]3 |] %18
V:3
 x6 | x6 | x6 | x6 | x6 | x6 | x6 | x6 | x6 | [G,D]2 [F,D] [G,D][E,A,][D,A,] | x6 | x6 | x6 | x6 | %14
[M:7/8] x7 |[M:3/4] x6 | x6 |[M:5/8] x5 |] %18

